X:1
T:Les Sérénades
T:Sérénade d'hiver
T:à Eugène Cougoul 
T:4. Sérénade d'hiver
T:Augusta Holmès
T:(Holmès)
T:Les Sérénades
T:OpenScore (CC0)
T:OpenScore (CC0)
T:OpenScore (CC0)
T:OpenScore (CC0)
C:Augusta Mary Anne Holmès
Z:(Holmès)
Z:OpenScore (CC0)
%%score 1 { 2 | 3 }
L:1/8
Q:1/4=63
M:3/4
K:Gb
V:1 treble nm="Chant\nVoice"
V:2 treble nm="Piano"
V:3 bass 
V:1
"^Andante con moto (\n)\n" z6 | z6 |!p! B2- B G A B/ c/ | B e d4 | (3B A G (d2 A2) | B2- B z z2 | %6
w: ||Viens, _ ô toi qu'on a|fait souf- frir,|O ma  chère â- *|\- me! _|
 B2- B G A B/ c/ | B e (d2 A) c | B2 d2 d2 | g4- g z |!mf! g- z (3g f e (3dc A | B e (3(dB) G D A | %12
w: Viens! _ je sais un di-|vin dic- ta- me Qui|peut te gué-|rir. _|Viens, _ je veux ren- dre à|ta pen- sé- e Les prin- temps|
 B2- B z!mf! e3/2 e/ | g3 B d e/ f/ | d!p! G B c/ d/ A2 | G2- G z z!p! e/ c/ | d2- d d/ d/ e c | %17
w: verts. _ Au de-|\- hors les cœurs sont per-|vers, La bise est gla- cé-|\- e; _ Au de-|hors _ sont les froids dé-|
 d2 G A/ B/ A2 | G2- G z z!p! e/ c/ | d3/2 d/ g2 (3fe f | (3d B G!pp! d2 d d | %21
w: \- dains, La froi- de nei-|ge. _ Plus de|nid fleu- ri qui _ pro-|\- tè- ge L'oi- seau des E-|
 g2- g z!mf!!<(! c/ c/ B/ A/!<)! | g f/ e/ (d B/) G/ A d | d2- d z z/!p! c/ B/ A/ | %24
w: dens! _ Mais c'est dans  mes|bras qu'il t'en- voi- e, L'hi- ver cru-|el! _ Re- trou- ves-|
 B e d B (3f e d | (3(gf) e (d4 | G2)!p![Q:1/4=60]"^rall." d4- | d z d3 A | d2- (3d B d (3fe d | %29
w: \- y l'a- zur du ciel Et les|chants _ de joi-|\- e! Dors,|_ dors en|paix _ jus- qu'au nou- * veau|
"^rall." g3/2[Q:1/4=59] e/ (d2 A2) | z z/!pp![Q:1/4=57] e/ (d2 A2) |!f! z[Q:1/4=55] d (ag (3dcA | %32
w: jour Je t'ai- me,|je t'ai- me,|je t'ai- * * * *|
 B) z/!pp![Q:1/4=53] e/ (d4 | G2-) G z!pp![Q:1/4=51] A B | G2 z[Q:1/4=49] (d A) A/ B/ | %35
w: me! Ou- bli-|\- e! _ Tout est|vain, tout n'est que fo-|
 (G2{/d} d2-) d/ z/!pp![Q:1/4=47] (A |[Q:1/4=47]"^lento" B2 d2 d2 | g4-) g !fermata!z |] %38
w: \- li- e, _ Hor-|mis notre a-|mour! _|
V:2
!pp! (g/b/d'/e'/ d'/4b/4g/4b/4g/b/ f/a/c'/d'/) | (g/b/d'/e'/ d'/b/g/b/ f/4a/4f/4a/4c'/d'/) | %2
!pp! (g/b/d'/e'/ d'/4b/4g/4b/4g/b/ f/a/c'/d'/) | (g/b/d'/e'/ d'/b/g/b/ f/4a/4f/4a/4c'/d'/) | %4
 (g/b/d'/e'/ d'/4b/4g/4b/4g/b/ f/a/c'/d'/) | (g/b/d'/e'/ d'/b/g/b/ f/4a/4f/4a/4c'/d'/) | %6
 (g/b/d'/e'/ d'/4b/4g/4b/4g/b/ f/a/c'/d'/) | (g/b/d'/e'/ d'/b/g/b/ f/4a/4f/4a/4c'/d'/) | %8
 (g/b/d'/e'/ d'/4b/4g/4b/4g/b/ f/a/c'/d'/) | (g/b/d'/e'/ d'/b/g/b/ f/4a/4f/4a/4c'/d'/) | %10
!mf! (g/b/d'/e'/ d'/4b/4g/4b/4g/b/ f/a/c'/d'/) | (g/b/d'/e'/ d'/b/g/b/ f/4a/4f/4a/4c'/d'/) | %12
 (g/b/d'/e'/ d'/4b/4g/4b/4g/b/ f/a/c'/d'/) | (g/b/d'/e'/ d'/b/g/b/ f/4a/4f/4a/4c'/d'/) | %14
!p! (g/b/d'/e'/ d'/4b/4g/4b/4g/b/ f/a/c'/d'/) | (g/b/d'/e'/ d'/b/g/b/ f/4a/4f/4a/4c'/d'/) | %16
 (g/b/d'/e'/ d'/4b/4g/4b/4g/b/ f/a/c'/d'/) | (g/b/d'/e'/ d'/b/g/b/ f/4a/4f/4a/4c'/d'/) | %18
 (g/b/d'/e'/ d'/4b/4g/4b/4g/b/ f/a/c'/d'/) | (g/b/d'/e'/ d'/b/g/b/ f/4a/4f/4a/4c'/d'/) | %20
 (g/b/d'/e'/ d'/4b/4g/4b/4g/b/ f/a/c'/d'/) | %21
 (g/b/d'/e'/ d'/b/g/b/!mp! f/4!<(!a/4f/4a/4c'/d'/)!<)! | %22
 (g/b/d'/e'/ d'/4b/4g/4b/4g/b/ f/a/c'/d'/) | (g/b/d'/e'/!p! d'/b/g/b/ f/4a/4f/4a/4c'/d'/) | %24
 (g/b/d'/e'/ d'/4b/4g/4b/4g/b/ f/a/c'/d'/) | (g/b/d'/e'/ d'/b/g/b/ f/4a/4f/4a/4c'/d'/) | %26
 (g/b/"_dim.  e  rall."d'/e'/ d'/4b/4g/4b/4g/b/ f/a/c'/d'/) | %27
 (g/b/d'/e'/ d'/b/g/b/ f/4a/4f/4a/4c'/d'/) | (g/b/d'/e'/ d'/4b/4g/4b/4g/b/ f/a/c'/!p!d'/) | %29
 (g/b/d'/e'/ d'/b/g/b/ f/4a/4f/4a/4c'/d'/) | (g/b/d'/e'/ d'/4b/4g/4b/4g/b/ f/a/c'/d'/) | %31
!mp! (g/b/d'/e'/ d'/b/g/b/ f/4a/4f/4a/4c'/d'/) | %32
 (g/"_dimin."b/d'/e'/ d'/4b/4g/4b/4g/b/ f/a/c'/!pp!d'/) | %33
 (g/b/d'/e'/ d'/b/g/b/ f/4a/4f/4a/4c'/d'/) | (g/b/d'/e'/ d'/4b/4g/4b/4g/b/ f/a/c'/d'/) | %35
 (g/b/d'/e'/ d'/b/g/b/ f/4a/4f/4a/4c'/d'/) | %36
!pp!"_lento" (g/b/!>(!d'/e'/ d'/4b/4g/4b/4g/b/ f/a/c'/d'/)!>)! | %37
!ppp! !arpeggio![gbg']4- [gbg'] !fermata!z |] %38
V:3
!ped! G,,2[K:treble] !arpeggio![DGBd]2!ped-up!!ped! !arpeggio![DFAc]2 | %1
[K:bass]!ped! G,,2[K:treble] !arpeggio![DGBd]2!ped-up!!ped! !arpeggio![DFAc]2!ped-up! | %2
[K:bass]!ped! G,,2[K:treble] !arpeggio![DGBd]2!ped! !arpeggio![DFAc]2!ped-up! | %3
[K:bass]!ped! G,,2[K:treble] !arpeggio![DGBd]2!ped-up!!ped! !arpeggio![DFAc]2 | %4
[K:bass]!ped! G,,2[K:treble] !arpeggio![DGBd]2!ped! !arpeggio![DFAc]2!ped-up! | %5
[K:bass]!ped! G,,2[K:treble] !arpeggio![DGBd]2!ped-up!!ped! !arpeggio![DFAc]2!ped-up! | %6
[K:bass]!ped! G,,2[K:treble] !arpeggio![DGBd]2!ped-up!!ped! !arpeggio![DFAc]2!ped-up! | %7
[K:bass]!ped! G,,2[K:treble] !arpeggio![DGBd]2!ped-up!!ped! !arpeggio![DFAc]2!ped-up! | %8
[K:bass]!ped! G,,2[K:treble] !arpeggio![DGBd]2!ped-up!!ped! !arpeggio![DFAc]2!ped-up! | %9
[K:bass]!ped! G,,2[K:treble] !arpeggio![DGBd]2!ped-up!!ped! !arpeggio![DFAc]2!ped-up! | %10
[K:bass]!ped! G,,2[K:treble] !arpeggio![DGBd]2!ped-up!!ped! !arpeggio![DFAc]2!ped-up! | %11
[K:bass]!ped! G,,2[K:treble] !arpeggio![DGBd]2!ped-up!!ped! !arpeggio![DFAc]2!ped-up! | %12
[K:bass]!ped! G,,2[K:treble] !arpeggio![DGBd]2!ped-up!!ped! !arpeggio![DFAc]2!ped-up! | %13
[K:bass]!ped! G,,2[K:treble] !arpeggio![DGBd]2!ped-up!!ped! !arpeggio![DFAc]2!ped-up! | %14
[K:bass]!ped! G,,2[K:treble] !arpeggio![DGBd]2!ped-up!!ped! !arpeggio![DFAc]2!ped-up! | %15
[K:bass]!ped! G,,2[K:treble] !arpeggio![DGBd]2!ped-up!!ped! !arpeggio![DFAc]2!ped-up! | %16
[K:bass]!ped! G,,2[K:treble] !arpeggio![DGBd]2!ped-up!!ped! !arpeggio![DFAc]2!ped-up! | %17
[K:bass]!ped! G,,2[K:treble] !arpeggio![DGBd]2!ped-up!!ped! !arpeggio![DFAc]2 | %18
[K:bass]!ped! G,,2[K:treble] !arpeggio![DGBd]2!ped! !arpeggio![DFAc]2!ped-up! | %19
[K:bass]!ped! G,,2[K:treble] !arpeggio![DGBd]2!ped-up!!ped! !arpeggio![DFAc]2!ped-up! | %20
[K:bass]!ped! G,,2[K:treble] !arpeggio![DGBd]2!ped-up!!ped! !arpeggio![DFAc]2!ped-up! | %21
[K:bass]!ped! G,,2[K:treble] !arpeggio![DGBd]2!ped-up!!ped! !arpeggio![DFAc]2!ped-up! | %22
[K:bass]!ped! G,,2[K:treble] !arpeggio![DGBd]2!ped-up!!ped! !arpeggio![DFAc]2!ped-up! | %23
[K:bass]!ped! G,,2[K:treble] !arpeggio![DGBd]2!ped-up!!ped! !arpeggio![DFAc]2!ped-up! | %24
[K:bass]!ped! G,,2[K:treble] !arpeggio![DGBd]2!ped-up!!ped! !arpeggio![DFAc]2!ped-up! | %25
[K:bass]!ped! G,,2[K:treble] !arpeggio![DGBd]2!ped-up!!ped! !arpeggio![DFAc]2!ped-up! | %26
[K:bass]!ped! G,,2[K:treble] !arpeggio![DGBd]2!ped-up!!ped! !arpeggio![DFAc]2!ped-up! | %27
[K:bass]!ped! G,,2[K:treble] !arpeggio![DGBd]2!ped-up!!ped! !arpeggio![DFAc]2 | %28
[K:bass]!ped! G,,2[K:treble] !arpeggio![DGBd]2!ped! !arpeggio![DFAc]2!ped-up! | %29
[K:bass]!ped!"^rall." G,,2[K:treble] !arpeggio![DGBd]2!ped-up!!ped! !arpeggio![DFAc]2!ped-up! | %30
[K:bass]!ped! G,,2[K:treble] !arpeggio![DGBd]2!ped-up!!ped! !arpeggio![DFAc]2!ped-up! | %31
[K:bass]!ped! G,,2[K:treble] !arpeggio![DGBd]2!ped-up!!ped! !arpeggio![DFAc]2!ped-up! | %32
[K:bass]!ped! G,,2[K:treble] !arpeggio![DGBd]2!ped-up!!ped! !arpeggio![DFAc]2 | %33
[K:bass]!ped! G,,2[K:treble] !arpeggio![DGBd]2!ped! !arpeggio![DFAc]2!ped-up! | %34
[K:bass]!ped! G,,2[K:treble] !arpeggio![DGBd]2!ped-up!!ped! !arpeggio![DFAc]2 | %35
[K:bass]!ped! G,,2[K:treble] !arpeggio![DGBd]2!ped! !arpeggio![DFAc]2!ped-up! | %36
[K:bass]!ped! G,,2[K:treble] !arpeggio![DGBd]2!ped-up!!ped! !arpeggio![DFAc]2!ped-up! | %37
[K:bass]!ped! G,,2 z2!ped-up! !fermata!z2 |] %38

